!! 00000] TT[WS
!!!OTL: Zhen hunhun genzai ni houtou
!!!ARE: Asia, China, Shanxi Hequ
!! Ethnic Group: Han
!! WI, 5
!!!SCT: J0005
!!!YEM: Copyright 1995, estate of Helmut Schaffrath.
**kern
*ICvox
*Ivox
!! 2+3 metric grouping
!! Mixed meters:  4/8; 5/8
*M4/8
*k[b-e-a-]
*E-:
{8cc
8b-
[4cc
=1
*M5/8
8cc]
8ee-
8b-
8g
8f
=2
*M4/8
4g
8cc
8e-
=3
2f}
=4
{8cc
8b-
[4cc
=5
*M5/8
8cc]
8ee-
8b-
8g
8f
=6
*M4/8
8g
8e-
8B-
8G
=7
2B-}
==
!!!AGN: Shange, Shanqu. Qingge
!!!ONB: ESAC (Essen Associative Code) Database: CHINA
!!!AMT: irregular
!!!AIN: vox
!!!EED: Helmut Schaffrath
!!!EEV: 1.0
*-
!!!ONB: Tied note syntax fixed by Craig Sapp, 2004/05/03/
